X: 9411
T: Daniel Of The Sun
R: jig
M: 6/8
K: Dmajor
|fdd ede|fef dBA|Bee fed|Bee ede|
fdd ede|fef dBA|Bdd dBA|Bdd d2e:|:
faa efg|fef dBA|Bee fed|Bee ede|
faa efg|fef dBA|Bdd dBA|Bdd d2e:|

